X:1
T:Many and Great, O God
T:Many and Great, O God
T:American Indian Tune
T:Joseph R. Renville, 1842 
T:Public Domain Courtesy of the Cyber Hymnal™
C:American Indian Tune
Z:Public Domain
Z:Courtesy of the Cyber Hymnal™
%%score 1 2
L:1/8
Q:1/4=130
M:2/2
K:Eb
V:1 treble 
V:2 bass 
V:1
"^Unison" C4 C2 C2 | G6 A2 | G4 G2 F2 | E8 | F4 F2 D2 | C4 D4 | C8 | C4 C2 C2 | c6 d2 | %9
w: 1.~Ma- ny and|great, O|God, are Thy|things,|Mak- er of|earth and|sky;|Thy hands have|set the|
w: 2.~Grant un- to|us com-|mun- ion with|Thee,|Thou star a-|bid- ing|One;|Come un- to|us and|
 c4 (c2 B2) | G8 | A4 A2 G2 | G6 E2 | F4 (F2 D2) | C8 | C4 C2 C2 | G6 A2 | G4 (G2 F2) | E8 | %19
w: heav- ens~with *|stars;|Thy fin- gers|spread the|mount- ains~and *|plains.|Lo, at Thy|Word the|wa- ters~were *|formed;|
w: dwell with *|us;|With Thee are|found the|gifts of *|life,|Bless us with|life that|has no *|end,|
 F4 F2 D2 | C4 D4 | C8 |] %22
w: Deep seas o-|bey Thy|voice.|
w: E- tern- al|life with|Thee.|
V:2
 C,4 C,2 C,2 | G,6 A,2 | G,4 G,2 F,2 | E,8 | F,4 F,2 D,2 | C,4 [G,,D,]4 | C,8 | C,4 C,2 C,2 | %8
 C6 D2 | C4 C2 B,2 | G,8 | C4 C2 B,2 | G,6 E,2 | F,4 F,2 [G,,D,]2 | C,8 | C,4 C,2 C,2 | G,6 A,2 | %17
 G,4 G,2 F,2 | E,8 | F,4 F,2 D,2 | C,4 [G,,D,]4 | C,8 |] %22

